modules/zondicons/icons/screen-full.svg

<?xml version="1.0" encoding="UTF-8" standalone="no"?>
<svg width="20px" height="20px" viewBox="0 0 20 20" version="1.1" xmlns="http://www.w3.org/2000/svg" xmlns:xlink="http://www.w3.org/1999/xlink">
    <!-- Generator: Sketch 3.7.2 (28276) - http://www.bohemiancoding.com/sketch -->
    <title>screen-full</title>
    <desc>Created with Sketch.</desc>
    <defs></defs>
    <g id="Page-1" stroke="none" stroke-width="1" fill="none" fill-rule="evenodd">
        <g id="screen-full" fill="#000000">
            <path d="M4.20710678,17.2071068 L7,20 L0,20 L0,13 L2.79289322,15.7928932 L7.12132034,11.4644661 L8.53553391,12.8786797 L4.20710678,17.2071068 Z M15.7928932,2.79289322 L13,0 L20,0 L20,7 L17.2071068,4.20710678 L12.8786797,8.53553391 L11.4644661,7.12132034 L15.7928932,2.79289322 Z M15.7928932,17.2071068 L13,20 L20,20 L20,13 L17.2071068,15.7928932 L12.8786797,11.4644661 L11.4644661,12.8786797 L15.7928932,17.2071068 Z M4.20710678,2.79289322 L7,0 L0,0 L0,7 L2.79289322,4.20710678 L7.12132034,8.53553391 L8.53553391,7.12132034 L4.20710678,2.79289322 Z" id="Combined-Shape"></path>
        </g>
    </g>
</svg>

<svg width="20" height="20" viewBox="0 0 20 20" xmlns="http://www.w3.org/2000/svg"><path d="M4.207 17.207L7 20H0v-7l2.793 2.793 4.328-4.329 1.415 1.415-4.329 4.328zM15.793 2.793L13 0h7v7l-2.793-2.793-4.328 4.329-1.415-1.415 4.329-4.328zm0 14.414L13 20h7v-7l-2.793 2.793-4.328-4.329-1.415 1.415 4.329 4.328zM4.207 2.793L7 0H0v7l2.793-2.793L7.12 8.536 8.536 7.12 4.207 2.793z" fill="#000" fill-rule="evenodd"/></svg>
